resources/images/logo_AE.svg

<svg width="36" height="36" viewBox="0 0 36 36" fill="none" xmlns="http://www.w3.org/2000/svg">
<rect x="0.519231" y="0.519231" width="34.9615" height="34.9615" stroke="white" stroke-width="1.03846"/>
<path d="M17.8512 24.7144H19.6712L13.8068 10.2758H11.8452L6.00098 24.7144H7.74009L9.33764 20.6902H16.2536L17.8512 24.7144ZM12.7754 12.0149H12.8361L15.6874 19.2544H9.90387L12.7754 12.0149Z" fill="white"/>
<path d="M30.1065 21.7215H28.5292C28.1045 22.9551 27.2754 23.6224 25.9003 23.6224C23.9589 23.6224 22.7254 22.3282 22.6445 19.9824H30.1672V19.3151C30.1672 16.7064 28.8123 14.3 25.7992 14.3C23.0894 14.3 21.0065 16.3626 21.0065 19.6791C21.0065 22.9551 23.0287 24.9571 25.9003 24.9571C27.8821 24.9571 29.6414 23.8853 30.1065 21.7215ZM25.7992 15.6549C27.6192 15.6549 28.4887 17.0098 28.5292 18.7691H22.7052C22.9883 16.6862 24.2016 15.6549 25.7992 15.6549Z" fill="white"/>
</svg>

<svg width="36" height="36" fill="none" xmlns="http://www.w3.org/2000/svg"><path stroke="#fff" stroke-width="1.038" d="M.519.519h34.962v34.962H.519z"/><path d="M17.851 24.714h1.82l-5.864-14.438h-1.962L6.001 24.714h1.74l1.597-4.024h6.916l1.597 4.024zm-5.076-12.7h.061l2.851 7.24H9.904l2.871-7.24zm17.332 9.707h-1.578c-.424 1.234-1.254 1.901-2.629 1.901-1.941 0-3.175-1.294-3.255-3.64h7.522v-.667c0-2.609-1.355-5.015-4.368-5.015-2.71 0-4.793 2.063-4.793 5.38 0 3.275 2.023 5.277 4.894 5.277 1.982 0 3.741-1.072 4.207-3.236zm-4.308-6.066c1.82 0 2.69 1.355 2.73 3.114h-5.824c.283-2.083 1.497-3.114 3.094-3.114z" fill="#fff"/></svg>
